X: 10567
T: Dorset, The
R: reel
M: 4/4
K: Dmajor
F/E/|DFAG/F/ GBGB|DFA>G FEEF/E/|DFAG/F/ GBGB|DFA>G FDD:|
A|ddd/c/B AAA/G/F|EE/F/GA BAAB/c/|ddd/c/B AAA/G/F|1 EE/F/GE D2D:|2 EE/F/GE D3||

